X: 6267
T: Carolan's Farewell To Music
R: reel
M: 4/4
K: Edorian
B,|E2 EF G2 (3GFE|D>E F/A/B/c/ d>e f/e/d/B/|
B>A F/A/B/c/ d>B B/A/F|B>A FG EG F/E/D/B,/|
E2 EF G2 G/F/E|EE FEDE e>d (3efg|
B2 Bd A2 AB|GF F/E/F/G/ E3||
B|e2 ef ed ef|ed ef e>g f/e/d/B/|
d2 de dB de|fe df e>g f/e/d/B/|
e3 d/f/ e>d ef|(3efg (3efg fe dB|
dc de f/g/e/f/ d/e/c/d/|B/c/A/B/ G/A/F/G/ E>G F/E/D/B,/|
E2 EF G2 G/F/E|F2 (3FED e>d (3efg|
B2 Bd A2 AB|GF F/E/F/G/ E3||

